static/assets/images/icons/vault-mono.svg

<svg width="257" height="256" viewBox="0 0 257 256" fill="none" xmlns="http://www.w3.org/2000/svg">
<path d="M35.707 74.8077V202.026L157.02 226.264V176.197L139.304 172.849V196.061V204.35L96.2694 195.967L53.2349 187.584V96.9736L62.7214 98.8423L90.9293 104.399V86.2697L35.707 74.8077Z" fill="black"/>
<path d="M139.304 145.966L157.02 149.529V99.8374L117.692 91.8247V109.671L139.304 113.928V145.966Z" fill="black"/>
<path d="M157.02 158.358L139.304 154.821V172.849L157.02 176.197V158.358Z" fill="black"/>
<path d="M157.02 149.529L139.304 145.966V154.821L157.02 158.358V149.529Z" fill="black"/>
<path d="M90.9293 145.01L107.955 148.563V107.752L90.9293 104.399V145.01Z" fill="black"/>
<path d="M90.9293 86.2697V104.399L107.955 107.752V89.8035L90.9293 86.2697Z" fill="black"/>
<path d="M107.955 81.0484L90.9293 77.6078V86.2697L107.955 89.8035V81.0484Z" fill="black"/>
<path d="M107.955 148.563V166.925L139.304 172.849V154.821L107.955 148.563Z" fill="black"/>
<path d="M194.275 157.021V165.795L211.426 169.06V160.47L194.275 157.021Z" fill="black"/>
<path d="M194.275 157.021L211.426 160.47V79.0148L194.275 91.1028V157.021Z" fill="black"/>
<path d="M194.275 57.2257L107.955 40.0204V58.6071L117.692 60.4494L174.36 71.1704L194.275 57.2257Z" fill="black"/>
<path d="M157.02 226.264L221.352 180.488V162.467L211.426 160.47V169.06L166.255 200.896V185.382V178.543L157.02 176.197V226.264Z" fill="black"/>
<path d="M221.352 54.1241L157.02 99.8374V149.529L166.255 151.386V110.851L194.275 91.1028L211.426 79.0148V160.47L221.352 162.467V54.1241Z" fill="black"/>
<path d="M157.02 149.529V158.358L166.255 160.201V151.386L157.02 149.529Z" fill="black"/>
<path d="M157.02 158.358V176.197L166.255 178.543V160.201L157.02 158.358Z" fill="black"/>
<path d="M107.955 148.563L117.692 141.619V109.671L107.955 107.752V148.563Z" fill="black"/>
<path d="M117.692 109.671V91.8247L107.955 89.8035V107.752L117.692 109.671Z" fill="black"/>
<path d="M107.955 89.8035L117.692 91.8247V83.0163L107.955 81.0484V89.8035Z" fill="black"/>
<path d="M107.955 40.0204L62.4701 71.8564L82.5738 75.9192L90.9293 70.2199L107.955 58.6071V40.0204Z" fill="black"/>
<path d="M107.955 148.563L62.7214 180.819L82.7201 184.849L107.955 166.925V148.563Z" fill="black"/>
<path d="M53.2349 96.9736V187.584L62.7214 180.819V164.664V98.8423L53.2349 96.9736Z" fill="black"/>
<path d="M221.352 54.1241L99.6619 29.7852L35.707 74.8077L90.9293 86.2697V77.6078L82.5738 75.9192L62.4701 71.8564L107.955 40.0204L194.275 57.2257L174.36 71.1704L148.539 89.2501L117.692 83.0163V91.8247L157.02 99.8374L221.352 54.1241Z" fill="black"/>
<path d="M62.7214 180.819L107.955 148.563L90.9293 145.01L62.7214 164.664V180.819Z" fill="black"/>
<path d="M62.7214 180.819L53.2349 187.584L96.2694 195.967L139.304 204.35V196.061L82.7201 184.849L62.7214 180.819Z" fill="black"/>
<path d="M194.275 165.795L174.32 179.896L166.255 185.382V200.896L211.426 169.06L194.275 165.795Z" fill="black"/>
<path d="M117.692 141.619L107.955 148.563L139.304 154.821V145.966L117.692 141.619Z" fill="black"/>
</svg>

<svg xmlns="http://www.w3.org/2000/svg" fill="none" viewBox="0 0 257 256"><path fill="#000" d="M35.707 74.808v127.218l121.313 24.238v-50.067l-17.716-3.348v31.501l-43.035-8.383-43.034-8.383v-90.61l9.486 1.868L90.93 104.4V86.27zm103.597 71.158 17.716 3.563V99.837l-39.328-8.012v17.846l21.612 4.257z"/><path fill="#000" d="m157.02 158.358-17.716-3.537v18.028l17.716 3.348z"/><path fill="#000" d="m157.02 149.529-17.716-3.563v8.855l17.716 3.537zm-66.09-4.519 17.025 3.553v-40.811l-17.026-3.353z"/><path fill="#000" d="M90.93 86.27v18.129l17.025 3.353V89.804z"/><path fill="#000" d="m107.955 81.048-17.026-3.44v8.662l17.026 3.534zm0 67.515v18.362l31.349 5.924v-18.028zm86.32 8.458v8.774l17.151 3.265v-8.59z"/><path fill="#000" d="m194.275 157.021 17.151 3.449V79.015l-17.151 12.088zm0-99.795-86.32-17.206v18.587l9.737 1.842L174.36 71.17z"/><path fill="#000" d="m157.02 226.264 64.332-45.776v-18.021l-9.926-1.997v8.59l-45.171 31.836v-22.353l-9.235-2.346z"/><path fill="#000" d="M221.352 54.124 157.02 99.837v49.692l9.235 1.857v-40.535l28.02-19.748 17.151-12.088v81.455l9.926 1.997z"/><path fill="#000" d="M157.02 149.529v8.829l9.235 1.843v-8.815zm0 8.829v17.839l9.235 2.346v-18.342zm-49.065-9.795 9.737-6.944v-31.948l-9.737-1.919zm9.737-38.892V91.825l-9.737-2.022v17.949z"/><path fill="#000" d="m107.955 89.804 9.737 2.02v-8.808l-9.737-1.968zm0-49.784L62.47 71.856l20.104 4.063 8.355-5.7 17.026-11.612zm0 108.543-45.234 32.256 20 4.03 25.234-17.924z"/><path fill="#000" d="M53.235 96.974v90.61l9.486-6.765V98.842zm168.117-42.85L99.662 29.785 35.707 74.808 90.929 86.27v-8.662l-8.355-1.689-20.104-4.063 45.485-31.836 86.32 17.206L174.36 71.17l-25.821 18.08-30.847-6.234v8.809l39.328 8.012z"/><path fill="#000" d="m62.721 180.819 45.234-32.256-17.026-3.553-28.208 19.654zm0 0-9.486 6.765 43.034 8.383 43.035 8.383v-8.289L82.72 184.849zm131.554-15.024-19.955 14.101-8.065 5.486v15.514l45.171-31.836zm-76.583-24.176-9.737 6.944 31.349 6.258v-8.855z"/></svg>
